X: 30931
T: Over The Moor To Peggy
R: reel
M: 4/4
K: Gmajor
ge|dGBG DG~G2|dGBG A2ge|dGBG DG~G2|AF~F2 A2:|
z2|dg~g2 dgeg|dg~g2 B2Bc|1 dg~g2 dged|BAGA B2Bc:|2 dega bgag|fdcA G2||

